X:1
T:Old Toler. JBut.531
T:Old Toler. JBut.531
T:Old Towler,aka. JBut.531
T:A Quick Step
C:A Quick Step
L:1/8
Q:3/8=120
M:6/8
K:D
V:1 treble 
V:1
 A | d2 d B2 G | F2 G A2 =c | B2 d ceg | g2 g f2 A | d2 d f2 d | B2 B e2 d | cdc BAB | %8
 A3-"^NB1" A2 :: A | e2 c A2 A | f2 d A2 A | c2 e g2 f | f3 e2 G | A^GA Bcd | efg afd | B2 e d2 c | %17
 d3-"^NB1" d2 :: F | G2 A A2 A | d3 AAF | AFF AAd | cde e2 e | a3 eec | eec e/e/ g2 | g2 f ddd | %26
 f2 e cAA | a2 f ddd | f2 e cAA | A3 A3 | dff dff | d3 d3 | dff dff | a3"^NB2" z (A/G/F/E/) | %34
 D2 G F2 B | A2 g f2 d | e2 e cBc | d2 g faf | ede a2 g | faf ede | d3-"^NB1" d2 :| %41

